Catalina-dark/actions/22/chronometer-pause.svg

<svg xmlns="http://www.w3.org/2000/svg" viewBox="0 0 22 22">
  <defs id="defs3051">
    <style type="text/css" id="current-color-scheme">
      .ColorScheme-Text {
        color:#f2f2f2
      }
      </style>
  </defs>
 <path 
     style="fill:currentColor;fill-opacity:1;stroke:none"      
	 class="ColorScheme-Text"
        d="M 9.3691406 3 C 9.1158971 3 8.9082031 3.2035468 8.9082031 3.4609375 L 8.9082031 3.8417969 C 8.9082031 4.0988214 9.1158971 4.3066406 9.3691406 4.3066406 L 9.5292969 4.3066406 L 9.5292969 4.5742188 C 9.5295441 4.9603186 9.7741471 4.992587 9.8964844 4.984375 C 9.9172661 4.9816285 9.9382333 4.977539 9.9609375 4.9746094 C 9.9611938 4.9746094 9.9648438 4.9746094 9.9648438 4.9746094 C 10.399153 4.9151024 11.118263 4.8578836 11.943359 4.9628906 C 11.943359 4.9628906 12.47214 5.0602904 12.470703 4.5742188 L 12.470703 4.3046875 L 12.632812 4.3046875 C 12.886322 4.3046875 13.09375 4.0991876 13.09375 3.8417969 L 13.09375 3.4609375 C 13.093723 3.2037665 12.884359 3 12.630859 3 L 9.3691406 3 z M 14.609375 4.7011719 C 14.566707 4.7097775 14.533988 4.7367716 14.511719 4.7617188 L 14.474609 4.8144531 L 14.160156 5.265625 C 14.158325 5.267456 13.981316 5.5460566 14.263672 5.6933594 C 14.666901 5.8918016 15.406341 6.3108685 16.115234 6.9863281 L 16.115234 6.984375 C 16.115234 6.984375 16.369712 7.241183 16.548828 6.9863281 L 16.890625 6.4960938 C 17.009804 6.3239354 16.855773 6.2051235 16.839844 6.1933594 L 14.769531 4.7460938 L 14.767578 4.7460938 C 14.703832 4.7017381 14.652043 4.6925662 14.609375 4.7011719 z M 11 5.5625 C 7.2895726 5.5625 4.28125 8.570493 4.28125 12.28125 C 4.28125 15.991082 7.2895451 19 11 19 C 14.7104 19 17.71875 15.991055 17.71875 12.28125 C 17.71875 8.570493 14.7104 5.5625 11 5.5625 z M 8.25 9.6074219 L 10.080078 9.6074219 L 10.080078 15.099609 L 8.25 15.099609 L 8.25 9.6074219 z M 11.919922 9.6074219 L 13.75 9.6074219 L 13.75 15.099609 L 11.919922 15.099609 L 11.919922 9.6074219 z "
     />
</svg>

<svg width="22" height="22" viewBox="4.281 3 13.44 16" xmlns="http://www.w3.org/2000/svg">
<defs>
<style id="current-color-scheme" type="text/css">.ColorScheme-Text {
        color:#f2f2f2
      }</style>
</defs>
<path class="ColorScheme-Text" d="m9.3691 3c-0.25324 0-0.46094 0.20355-0.46094 0.46094v0.38086c0 0.25702 0.20769 0.46484 0.46094 0.46484h0.16016v0.26758c2.472e-4 0.3861 0.24485 0.41837 0.36719 0.41016 0.020782-0.0027465 0.041749-0.006836 0.064453-0.0097656h0.0039063c0.43431-0.059507 1.1534-0.11673 1.9785-0.011719 0 0 0.52878 0.0974 0.52734-0.38867v-0.26953h0.16211c0.25351 0 0.46094-0.2055 0.46094-0.46289v-0.38086c-2.7e-5 -0.25717-0.20939-0.46094-0.46289-0.46094h-3.2617zm5.2402 1.7012c-0.042668 0.0086056-0.075387 0.0356-0.097656 0.060547l-0.03711 0.052734-0.31445 0.45117c-0.001831 0.001831-0.17884 0.28043 0.10352 0.42773 0.40323 0.19844 1.1427 0.61751 1.8516 1.293v-0.0019531s0.25448 0.25681 0.43359 0.0019531l0.3418-0.49023c0.11918-0.17216-0.034852-0.29097-0.050781-0.30273l-2.0703-1.4473h-0.001953c-0.063746-0.044356-0.11554-0.053528-0.1582-0.044922zm-3.6094 0.86133c-3.7104 0-6.7188 3.008-6.7188 6.7188 0 3.7098 3.0083 6.7188 6.7188 6.7188 3.7104 0 6.7188-3.0089 6.7188-6.7188 0-3.7108-3.0084-6.7188-6.7188-6.7188zm-2.75 4.0449h1.8301v5.4922h-1.8301v-5.4922zm3.6699 0h1.8301v5.4922h-1.8301v-5.4922z" fill="currentColor"/>
</svg>
